third_party/noto/noto_2/emoji_u1f5a8.svg

<svg enable-background="new 0 0 128 128" version="1.1" viewBox="0 0 128 128" xmlns="http://www.w3.org/2000/svg"><path d="m98.27 44.34h-68.54l4.48-27.88c0-1.9 1.54-3.45 3.45-3.45h52.97c1.9 0 3.45 1.54 3.45 3.45l4.19 27.88z" fill="#757575"/><path d="m92.94 41.9h-57.88l3.78-23.55c0-1.61 1.3-2.91 2.91-2.91h44.74c1.61 0 2.91 1.3 2.91 2.91l3.54 23.55z" fill="#424242"/><path d="m94.54 29.91h-60.97c-2.46 0-4.56 1.77-4.98 4.19l-1.79 10.28h74.38l-1.67-10.23c-0.38-2.45-2.5-4.24-4.97-4.24z" fill="#424242"/><linearGradient id="a" x1="64.684" x2="64.684" y1="30.827" y2="2.1371" gradientUnits="userSpaceOnUse"><stop stop-color="#eee" offset=".5664"/><stop stop-color="#E0E0E0" offset="1"/></linearGradient><path d="m39.83 38.74h50.69s2.69-18-1.78-34.47h-50.69c3.32 15.47 1.78 34.47 1.78 34.47z" fill="url(#a)"/><polygon points="39.01 43.56 90.06 42.92 90.8 36.91 40.17 36.91" fill="#BDBDBD"/><path d="m119.16 90.78h-104.28c-5.6 0-6.27-10.22-5.99-16.69 0.07-1.52 0.33-3.01 0.77-4.47l6.91-23.25s1.93-6.86 8.05-6.86h77.47c4.73 0 6.64 5.31 6.64 5.31l9 23.06c0.84 2.16 1.29 4.46 1.3 6.79l0.13 16.11z" fill="#CFD8DC"/><path d="m110.89 111.17h-93.78c-4.55 0-8.24-3.69-8.24-8.24v-26.88c0-3.5 2.84-6.34 6.34-6.34h97.58c3.5 0 6.34 2.84 6.34 6.34v26.88c0 4.55-3.69 8.24-8.24 8.24z" fill="#90A4AE"/><path d="m92.1 39.51h-55.71l-8.8 30.2v7.26c0 3.57 2.9 6.47 6.47 6.47h59.9c3.57 0 6.47-2.9 6.47-6.47v-7.26l-8.33-30.2z" fill="#607D8B"/><path d="m31.52 64.93 6.53-25.42h52.43l6.19 25.5c0.83 3.56-1.59 4.7-4.89 4.7h-55.39c-3.33 0-5.75-1.19-4.87-4.78z" fill="#90A4AE"/><circle cx="109.93" cy="79.84" r="3.45" fill="#424242"/><circle cx="109.93" cy="79.25" r="3.45" fill="#99D45B"/><path d="m106.24 118.59-7.37-24.29h-69.74l-7.37 24.29c-0.71 2.6 1.8 5.13 5.01 5.13h74.47c3.2 0.01 5.72-2.52 5-5.13z" fill="#616161"/><path d="m96.5 100.95c-0.37-1.8 1.09-2.35 1.58-2.5 1.15-0.36 2.1 0.21 2.1 0.21l-1.24-4.36h-69.88l-1.24 4.36s0.95-0.57 2.1-0.21c0.49 0.15 1.95 0.7 1.58 2.5-0.32 1.57-1.6 7.68-1.6 7.68-0.55 2.51-0.88 5.07-1.33 7.6 0 1.44 1.32 2.6 2.95 2.6h64.94c1.63 0 2.95-1.16 2.95-2.6-0.44-2.53-0.78-5.09-1.33-7.6 0.01 0-1.26-6.11-1.58-7.68z" fill="#212121"/><path d="m55.4 106.09s-20.05 7.62 4.29 7.62 34.75-6.67 34.75-6.67l-5.63-5.46-28.07 2.61-5.34 1.9z" fill="#BDBDBD"/><path d="m93.06 97.59h-55.99l-4.76 15.85s15.89 0.26 27.39 0.26 26.07-9.34 26.07-9.34 9.51 5.68 8.98 1.46c-0.62-4.82-1.69-8.23-1.69-8.23z" fill="#fff"/><polygon points="93.49 99.14 92.74 96.14 37.39 96.35 36.62 99.14" fill="#BDBDBD"/><polygon points="81.69 106.72 38.44 106.72 38.13 107.75 79.65 107.75" fill="#9E9E9E"/><path d="m39.75 102.35-0.31 1.03h50.15c-0.05-0.35-0.1-0.7-0.15-1.03h-49.69z" fill="#9E9E9E"/><path d="m88.58 98.13h-47.56l-0.31 1.03h48.12c-0.09-0.39-0.17-0.73-0.25-1.03z" fill="#757575"/><path d="m66.96 85.5h-5.92c-1.36 0-2.47-1.1-2.47-2.47v-0.4c0-1.36 1.1-2.47 2.47-2.47h5.92c1.36 0 2.47 1.1 2.47 2.47v0.4c0 1.37-1.11 2.47-2.47 2.47z" fill="#607D8B"/><path d="m93.87 90.44h-59.74c-2.94 0-5.32 2.38-5.32 5.32h70.37c0.01-2.94-2.38-5.32-5.31-5.32z" fill="#212121"/></svg>

<?xml version="1.0" encoding="utf-8"?>
<!-- Generator: Adobe Illustrator 25.2.3, SVG Export Plug-In . SVG Version: 6.00 Build 0)  -->
<svg version="1.1" id="Layer_1_copy" xmlns="http://www.w3.org/2000/svg" xmlns:xlink="http://www.w3.org/1999/xlink" x="0px"
	 y="0px" viewBox="0 0 128 128" style="enable-background:new 0 0 128 128;" xml:space="preserve">
<g>
	<path style="fill:#757575;" d="M98.27,44.34H29.73l4.48-27.88c0-1.9,1.54-3.45,3.45-3.45h52.97c1.9,0,3.45,1.54,3.45,3.45
		L98.27,44.34z"/>
	<path style="fill:#424242;" d="M92.94,41.9H35.06l3.78-23.55c0-1.61,1.3-2.91,2.91-2.91h44.74c1.61,0,2.91,1.3,2.91,2.91
		L92.94,41.9z"/>
	<path style="fill:#424242;" d="M94.54,29.91H33.57c-2.46,0-4.56,1.77-4.98,4.19l-1.79,10.28h74.38l-1.67-10.23
		C99.13,31.7,97.01,29.91,94.54,29.91z"/>
	<linearGradient id="SVGID_1_" gradientUnits="userSpaceOnUse" x1="64.6842" y1="30.8268" x2="64.6842" y2="2.1371">
		<stop  offset="0.5664" style="stop-color:#EEEEEE"/>
		<stop  offset="1" style="stop-color:#E0E0E0"/>
	</linearGradient>
	<path style="fill:url(#SVGID_1_);" d="M39.83,38.74h50.69c0,0,2.69-18-1.78-34.47H38.05C41.37,19.74,39.83,38.74,39.83,38.74z"/>
	<polygon style="fill:#BDBDBD;" points="39.01,43.56 90.06,42.92 90.8,36.91 40.17,36.91 	"/>
	<path style="fill:#CFD8DC;" d="M119.16,90.78H14.88c-5.6,0-6.27-10.22-5.99-16.69c0.07-1.52,0.33-3.01,0.77-4.47l6.91-23.25
		c0,0,1.93-6.86,8.05-6.86h77.47c4.73,0,6.64,5.31,6.64,5.31l9,23.06c0.84,2.16,1.29,4.46,1.3,6.79L119.16,90.78z"/>
	<path style="fill:#90A4AE;" d="M110.89,111.17H17.11c-4.55,0-8.24-3.69-8.24-8.24V76.05c0-3.5,2.84-6.34,6.34-6.34h97.58
		c3.5,0,6.34,2.84,6.34,6.34v26.88C119.13,107.48,115.44,111.17,110.89,111.17z"/>
	<path style="fill:#607D8B;" d="M92.1,39.51H36.39l-8.8,30.2v7.26c0,3.57,2.9,6.47,6.47,6.47h59.9c3.57,0,6.47-2.9,6.47-6.47v-7.26
		L92.1,39.51z"/>
	<path style="fill:#90A4AE;" d="M31.52,64.93l6.53-25.42h52.43l6.19,25.5c0.83,3.56-1.59,4.7-4.89,4.7H36.39
		C33.06,69.71,30.64,68.52,31.52,64.93z"/>
	<circle style="fill:#424242;" cx="109.93" cy="79.84" r="3.45"/>
	<circle style="fill:#99D45B;" cx="109.93" cy="79.25" r="3.45"/>
	<path style="fill:#616161;" d="M106.24,118.59l-7.37-24.29H64H29.13l-7.37,24.29c-0.71,2.6,1.8,5.13,5.01,5.13H64h37.24
		C104.44,123.73,106.96,121.2,106.24,118.59z"/>
	<path style="fill:#212121;" d="M96.5,100.95c-0.37-1.8,1.09-2.35,1.58-2.5c1.15-0.36,2.1,0.21,2.1,0.21l-1.24-4.36H29.06
		l-1.24,4.36c0,0,0.95-0.57,2.1-0.21c0.49,0.15,1.95,0.7,1.58,2.5c-0.32,1.57-1.6,7.68-1.6,7.68c-0.55,2.51-0.88,5.07-1.33,7.6
		c0,1.44,1.32,2.6,2.95,2.6h64.94c1.63,0,2.95-1.16,2.95-2.6c-0.44-2.53-0.78-5.09-1.33-7.6C98.09,108.63,96.82,102.52,96.5,100.95z
		"/>
	<path style="fill:#BDBDBD;" d="M55.4,106.09c0,0-20.05,7.62,4.29,7.62s34.75-6.67,34.75-6.67l-5.63-5.46l-28.07,2.61L55.4,106.09z"
		/>
	<path style="fill:#FFFFFF;" d="M93.06,97.59H37.07l-4.76,15.85c0,0,15.89,0.26,27.39,0.26s26.07-9.34,26.07-9.34
		s9.51,5.68,8.98,1.46C94.13,101,93.06,97.59,93.06,97.59z"/>
	<polygon style="fill:#BDBDBD;" points="93.49,99.14 92.74,96.14 37.39,96.35 36.62,99.14 	"/>
	<g>
		<g>
			<polygon style="fill:#9E9E9E;" points="81.69,106.72 38.44,106.72 38.13,107.75 79.65,107.75 			"/>
		</g>
		<g>
			<path style="fill:#9E9E9E;" d="M39.75,102.35l-0.31,1.03h50.15c-0.05-0.35-0.1-0.7-0.15-1.03H39.75z"/>
		</g>
		<g>
			<path style="fill:#757575;" d="M88.58,98.13H41.02l-0.31,1.03h48.12C88.74,98.77,88.66,98.43,88.58,98.13z"/>
		</g>
	</g>
	<path style="fill:#607D8B;" d="M66.96,85.5h-5.92c-1.36,0-2.47-1.1-2.47-2.47v-0.4c0-1.36,1.1-2.47,2.47-2.47h5.92
		c1.36,0,2.47,1.1,2.47,2.47v0.4C69.43,84.4,68.32,85.5,66.96,85.5z"/>
	<path style="fill:#212121;" d="M93.87,90.44H34.13c-2.94,0-5.32,2.38-5.32,5.32v0h70.37v0C99.19,92.82,96.8,90.44,93.87,90.44z"/>
</g>
</svg>
